X:1
T:Tar Road to Sligo
O:Irland
R:Jig
M:6/8
Q:1/4=120
K:D
e3|: fdB Bcd | ecA BAG | FGA ABc | dcd efg | 
fdB Bcd | ecA BAG | FGA Aag |[1 fdc d2e :|[2 fdc d2B]|
|: Adf Adf | ~g3 efg | afd dcd | Bed cBA |
[1 Adf Adf | ~g3 efg | afd bge | edc d2B :|
[2 fdB gdc | afd bge | ~a3 bge | edc d2e ]|

